X:270
T:Captain Campbell
S:Gillian Boucher, Edinburgh session 27/6/01
Z:Nigel Gatherer
M:4/4
L:1/8
K:Am
E<AA>B c>AB<G|D<GG>A B>d c/B/A/G/|E<AA>B c>Bc<e|dB A2 A2:|
A<aa>g e>dc<e|d>eg>e d/c/B/A/ Gg e>dc<e|dB A2 A2|
A<aa>g e>dc<e|d>eg>e d/c/B/A/ GB e>dc<e|dB A2 A2|]
